svg/UnitedNations-Flags/flag-nu.svg

<?xml version="1.0" encoding="UTF-8" standalone="no"?>
<!-- Created with Inkscape (http://www.inkscape.org/) --><svg height="256" id="svg15340" inkscape:output_extension="org.inkscape.output.svg.inkscape" inkscape:version="0.46" sodipodi:docbase="C:\Documents and Settings\Zoran\Desktop" sodipodi:docname="Flag_of_Niue.svg" sodipodi:version="0.32" version="1.0" width="256" xmlns="http://www.w3.org/2000/svg" xmlns:cc="http://creativecommons.org/ns#" xmlns:dc="http://purl.org/dc/elements/1.1/" xmlns:inkscape="http://www.inkscape.org/namespaces/inkscape" xmlns:rdf="http://www.w3.org/1999/02/22-rdf-syntax-ns#" xmlns:sodipodi="http://sodipodi.sourceforge.net/DTD/sodipodi-0.dtd" xmlns:svg="http://www.w3.org/2000/svg">
  <metadata>
    <rdf:RDF xmlns:cc="http://web.resource.org/cc/" xmlns:dc="http://purl.org/dc/elements/1.1/" xmlns:rdf="http://www.w3.org/1999/02/22-rdf-syntax-ns#">
      <cc:Work rdf:about="">
        <dc:title></dc:title>
        <dc:description></dc:description>
        <dc:subject>
          <rdf:Bag>
            <rdf:li>unsorted</rdf:li>
          </rdf:Bag>
        </dc:subject>
        <dc:publisher>
          <cc:Agent rdf:about="http://www.openclipart.org/">
            <dc:title>Open Clip Art Library, Source: Wikimedia Commons, Source: Wikimedia Commons, Source: Wikimedia Commons, Source: Wikimedia Commons</dc:title>
          </cc:Agent>
        </dc:publisher>
        <dc:creator>
          <cc:Agent>
            <dc:title></dc:title>
          </cc:Agent>
        </dc:creator>
        <dc:rights>
          <cc:Agent>
            <dc:title></dc:title>
          </cc:Agent>
        </dc:rights>
        <dc:date></dc:date>
        <dc:format>image/svg+xml</dc:format>
        <dc:type rdf:resource="http://purl.org/dc/dcmitype/StillImage"/>
        <cc:license rdf:resource="http://en.wikipedia.org/wiki/Public_domain"/>
        <dc:language>en</dc:language>
      </cc:Work>
    </rdf:RDF>
  </metadata>
  <sodipodi:namedview bordercolor="#666666" borderopacity="1.0" gridtolerance="10.0" guidetolerance="10.0" id="base" inkscape:current-layer="svg15340" inkscape:cx="269.53819" inkscape:cy="204.62822" inkscape:pageopacity="0.0" inkscape:pageshadow="2" inkscape:window-height="674" inkscape:window-width="744" inkscape:window-x="-28" inkscape:window-y="117" inkscape:zoom="0.77663895" objecttolerance="10.0" pagecolor="#ffffff" showgrid="false"/>
  <defs id="defs15342">
    <inkscape:perspective id="perspective4441" inkscape:persp3d-origin="300 : 100 : 1" inkscape:vp_x="0 : 150 : 1" inkscape:vp_y="0 : 1000 : 0" inkscape:vp_z="600 : 150 : 1" sodipodi:type="inkscape:persp3d"/>
  </defs>
  <rect height="127.99998" id="rect15349" style="fill:#fcd116;fill-opacity:1;fill-rule:evenodd;stroke:none;stroke-width:1pt;stroke-linecap:butt;stroke-linejoin:miter;stroke-opacity:1" width="256" x="0" y="64.000015"/>
  <rect height="63.999992" id="rect908" style="fill:#002868;fill-opacity:1;fill-rule:evenodd;stroke:none;stroke-width:1pt;stroke-linecap:butt;stroke-linejoin:miter;stroke-opacity:1" width="128" x="0" y="64"/>
  <path d="M 0,127.99999 L 14.3104,127.99999 L 128,71.1552 L 128,64.000001 L 113.6896,64.000001 L 0,120.84479 L 0,127.99999 z" id="path4640" style="fill:#ffffff;fill-opacity:1;fill-rule:evenodd;stroke:none;stroke-width:1pt;stroke-linecap:butt;stroke-linejoin:miter;stroke-opacity:1"/>
  <path d="M 128,127.99999 L 113.6896,127.99999 L 0,71.1552 L 0,64.000001 L 14.3104,64.000001 L 128,120.84479 L 128,127.99999 z" id="path6505" style="fill:#ffffff;fill-opacity:1;fill-rule:evenodd;stroke:none;stroke-width:1pt;stroke-linecap:butt;stroke-linejoin:miter;stroke-opacity:1"/>
  <rect height="63.999992" id="rect1530" style="fill:#ffffff;fill-opacity:1;fill-rule:evenodd;stroke:none;stroke-width:1pt;stroke-linecap:butt;stroke-linejoin:miter;stroke-opacity:1" width="21.333334" x="53.333332" y="64"/>
  <rect height="21.333332" id="rect2152" style="fill:#ffffff;fill-opacity:1;fill-rule:evenodd;stroke:none;stroke-width:1pt;stroke-linecap:butt;stroke-linejoin:miter;stroke-opacity:1" width="128" x="0" y="85.333328"/>
  <rect height="12.799998" id="rect3395" style="fill:#ce1126;fill-opacity:1;fill-rule:evenodd;stroke:none;stroke-width:1pt;stroke-linecap:butt;stroke-linejoin:miter;stroke-opacity:1" width="128" x="0" y="89.599991"/>
  <rect height="63.999992" id="rect4017" style="fill:#ce1126;fill-opacity:1;fill-rule:evenodd;stroke:none;stroke-width:1pt;stroke-linecap:butt;stroke-linejoin:miter;stroke-opacity:1" width="12.8" x="57.599998" y="64"/>
  <path d="M 0,127.99999 L 9.5402667,127.99999 L 52.206933,106.66666 L 42.666667,106.66666 L 0,127.99999 z" id="path7127" style="fill:#ce1126;fill-opacity:1;fill-rule:evenodd;stroke:none;stroke-width:1pt;stroke-linecap:butt;stroke-linejoin:miter;stroke-opacity:1"/>
  <path d="M 75.793067,85.333328 L 85.333333,85.333328 L 128,64.000001 L 118.45973,64.000001 L 75.793067,85.333328 z" id="path8371" style="fill:#ce1126;fill-opacity:1;fill-rule:evenodd;stroke:none;stroke-width:1pt;stroke-linecap:butt;stroke-linejoin:miter;stroke-opacity:1"/>
  <path d="M 128,127.99999 L 128,123.22985 L 94.8736,106.66666 L 85.333333,106.66666 L 128,127.99999 z" id="path8994" style="fill:#ce1126;fill-opacity:1;fill-rule:evenodd;stroke:none;stroke-width:1pt;stroke-linecap:butt;stroke-linejoin:miter;stroke-opacity:1"/>
  <path d="M 0,64.000001 L 0,68.77013 L 33.1264,85.333328 L 42.666667,85.333328 L 0,64.000001 z" id="path9616" style="fill:#ce1126;fill-opacity:1;fill-rule:evenodd;stroke:none;stroke-width:1pt;stroke-linecap:butt;stroke-linejoin:miter;stroke-opacity:1"/>
  <path d="M 74.666686,96.000027 C 74.666686,90.108997 69.891057,85.333378 64.000018,85.333378 C 58.108981,85.333378 53.333352,90.108997 53.333352,96.000027 C 53.333352,101.89106 58.108981,106.66668 64.000018,106.66668 C 69.891057,106.66668 74.666686,101.89106 74.666686,96.000027 L 74.666686,96.000027 z" id="path16014" style="fill:#002868;fill-opacity:1;fill-rule:evenodd;stroke:none;stroke-width:1pt;stroke-linecap:butt;stroke-linejoin:miter;stroke-opacity:1"/>
  <path d="M 53.856021,92.704037 L 61.606037,92.704037 L 64.000021,85.333368 L 66.394005,92.704037 L 74.144021,92.704037 L 67.875029,97.258707 L 70.269013,104.62937 L 64.000021,100.0747 L 57.731029,104.62937 L 60.125013,97.258707 L 53.856021,92.704037 z" id="path2203" style="fill:#fcd116;fill-opacity:1;fill-rule:evenodd;stroke:none;stroke-width:1pt;stroke-linecap:butt;stroke-linejoin:miter;stroke-opacity:1"/>
  <path d="M 57.913587,115.96947 L 62.563597,115.96947 L 63.999987,111.54667 L 65.436378,115.96947 L 70.086387,115.96947 L 66.324992,118.70253 L 67.761382,123.12533 L 63.999987,120.39228 L 60.238592,123.12533 L 61.674982,118.70253 L 57.913587,115.96947 z" id="path988" style="fill:#fcd116;fill-opacity:1;fill-rule:evenodd;stroke:none;stroke-width:1pt;stroke-linecap:butt;stroke-linejoin:miter;stroke-opacity:1"/>
  <path d="M 57.913587,73.302819 L 62.563597,73.302819 L 63.999987,68.88001 L 65.436378,73.302819 L 70.086387,73.302819 L 66.324992,76.035869 L 67.761382,80.458679 L 63.999987,77.725619 L 60.238592,80.458679 L 61.674982,76.035869 L 57.913587,73.302819 z" id="path1616" style="fill:#fcd116;fill-opacity:1;fill-rule:evenodd;stroke:none;stroke-width:1pt;stroke-linecap:butt;stroke-linejoin:miter;stroke-opacity:1"/>
  <path d="M 20.580262,94.633487 L 25.230272,94.633487 L 26.666662,90.210677 L 28.103053,94.633487 L 32.753062,94.633487 L 28.991667,97.366537 L 30.428058,101.78935 L 26.666662,99.056286 L 22.905267,101.78935 L 24.341658,97.366537 L 20.580262,94.633487 z" id="path1626" style="fill:#fcd116;fill-opacity:1;fill-rule:evenodd;stroke:none;stroke-width:1pt;stroke-linecap:butt;stroke-linejoin:miter;stroke-opacity:1"/>
  <path d="M 95.246912,94.633487 L 99.896922,94.633487 L 101.33331,90.210677 L 102.7697,94.633487 L 107.41971,94.633487 L 103.65832,97.366537 L 105.09471,101.78935 L 101.33331,99.056286 L 97.571917,101.78935 L 99.008307,97.366537 L 95.246912,94.633487 z" id="path1631" style="fill:#fcd116;fill-opacity:1;fill-rule:evenodd;stroke:none;stroke-width:1pt;stroke-linecap:butt;stroke-linejoin:miter;stroke-opacity:1"/>
</svg>

<svg xmlns="http://www.w3.org/2000/svg" viewBox="0 0 256 256"><g fill-rule="evenodd"><path fill="#fcd116" d="m0 64h256v128h-256z"/><path fill="#002868" d="m0 64h128v64h-128z"/><g fill="#fff"><path d="m0 128h14.31l113.69-56.845v-7.155h-14.31l-113.69 56.845v7.155"/><path d="m128 128h-14.31l-113.69-56.845v-7.155h14.31l113.69 56.845v7.155"/><path d="m53.33 64h21.333v64h-21.333z"/><path d="m0 85.33h128v21.334h-128z"/></g><g fill="#ce1126"><path d="m0 89.6h128v12.8h-128z"/><path d="m57.6 64h12.8v64h-12.8z"/><path d="m0 128h9.54l42.667-21.333h-9.54l-42.667 21.333"/><path d="m75.79 85.33h9.54l42.667-21.333h-9.54l-42.667 21.333"/><path d="m128 128v-4.77l-33.13-16.563h-9.54l42.667 21.333"/><path d="m0 64v4.77l33.13 16.563h9.54l-42.667-21.333"/></g><path d="m74.67 96c0-5.891-4.776-10.667-10.667-10.667-5.891 0-10.667 4.776-10.667 10.667 0 5.891 4.776 10.667 10.667 10.667 5.891 0 10.667-4.776 10.667-10.667" fill="#002868"/><g fill="#fcd116"><path d="m53.856 92.7h7.75l2.394-7.371 2.394 7.371h7.75l-6.269 4.555 2.394 7.371-6.269-4.555-6.269 4.555 2.394-7.371-6.269-4.555"/><path d="m57.914 115.97h4.65l1.436-4.423 1.436 4.423h4.65l-3.761 2.733 1.436 4.423-3.761-2.733-3.761 2.733 1.436-4.423-3.761-2.733"/><path d="m57.914 73.3h4.65l1.436-4.423 1.436 4.423h4.65l-3.761 2.733 1.436 4.423-3.761-2.733-3.761 2.733 1.436-4.423-3.761-2.733"/><path d="m20.58 94.63h4.65l1.436-4.423 1.436 4.423h4.65l-3.761 2.733 1.436 4.423-3.761-2.733-3.761 2.733 1.436-4.423-3.761-2.733"/><path d="m95.25 94.63h4.65l1.436-4.423 1.436 4.423h4.65l-3.761 2.733 1.436 4.423-3.761-2.733-3.761 2.733 1.436-4.423-3.761-2.733"/></g></g></svg>
